img/arrow-next-small.svg

<svg width="5" height="8" viewBox="0 0 5 8" fill="none" xmlns="http://www.w3.org/2000/svg">
<path fill-rule="evenodd" clip-rule="evenodd" d="M1.05019 0.358417C1.2369 0.164239 1.53961 0.164239 1.72632 0.358417L4.59491 3.34175C4.78162 3.53593 4.78162 3.85075 4.59491 4.04493L1.72632 7.02826C1.53961 7.22244 1.2369 7.22244 1.05019 7.02826C0.863479 6.83408 0.863479 6.51926 1.05019 6.32508L3.58071 3.69334L1.05019 1.0616C0.863479 0.867418 0.863479 0.552594 1.05019 0.358417Z" fill="white" fill-opacity="0.8"/>
</svg>

<svg width="5" height="8" fill="none" xmlns="http://www.w3.org/2000/svg"><path fill-rule="evenodd" clip-rule="evenodd" d="M1.05.358a.465.465 0 0 1 .676 0l2.869 2.984a.511.511 0 0 1 0 .703L1.726 7.028a.465.465 0 0 1-.676 0 .511.511 0 0 1 0-.703l2.53-2.632-2.53-2.631a.511.511 0 0 1 0-.704z" fill="#fff" fill-opacity=".8"/></svg>
